fs/building_shop_16_filled.svg

<svg viewBox="0 0 16 16" fill="none" xmlns="http://www.w3.org/2000/svg" height="1em" width="1em">
  <path d="M10 10V11H11V10H10ZM4.18768 1.10957L1.68768 3.10957C1.52187 3.24222 1.5 3.47 1.5 3.67V5.5C1.5 6.06291 1.68604 6.58237 2 7.00024V14.5C2 14.7761 2.22386 15 2.5 15H4V9.5C4 9.22386 4.22386 9 4.5 9H7.5C7.77614 9 8 9.22386 8 9.5V15H13.5C13.7761 15 14 14.7761 14 14.5V7.00024C14.314 6.58237 14.5 6.06291 14.5 5.5V3.6655C14.5 3.46513 14.4782 3.24222 14.3124 3.10957L11.8124 1.10957C11.7237 1.03864 11.6136 1 11.5 1H4.50003C4.38649 1 4.27634 1.03864 4.18768 1.10957ZM2.5 5.5V4H5.5V5.5C5.5 6.32843 4.82843 7 4 7C3.17157 7 2.5 6.32843 2.5 5.5ZM6.5 5.5V4H9.5V5.5C9.5 6.32843 8.82843 7 8 7C7.17157 7 6.5 6.32843 6.5 5.5ZM10.5 5.5V4H13.5V5.5C13.5 6.32843 12.8284 7 12 7C11.1716 7 10.5 6.32843 10.5 5.5ZM3.42542 3L4.67542 2H6.02853L5.65353 3H3.42542ZM6.72153 3L7.09653 2H8.88959L9.22292 3H6.72153ZM9.94368 2H11.3246L12.5746 3H10.277L9.94368 2ZM9 9.5C9 9.22386 9.22386 9 9.5 9H11.5C11.7761 9 12 9.22386 12 9.5V11.5C12 11.7761 11.7761 12 11.5 12H9.5C9.22386 12 9 11.7761 9 11.5V9.5ZM5 15H7V10H5V15Z" fill="#212121"/>
</svg>

<svg viewBox="0 0 16 16" fill="none" xmlns="http://www.w3.org/2000/svg" height="1em" width="1em">
  <path d="M10 10v1h1v-1h-1ZM4.188 1.11l-2.5 2c-.166.132-.188.36-.188.56V5.5c0 .563.186 1.082.5 1.5v7.5a.5.5 0 0 0 .5.5H4V9.5a.5.5 0 0 1 .5-.5h3a.5.5 0 0 1 .5.5V15h5.5a.5.5 0 0 0 .5-.5V7c.314-.418.5-.937.5-1.5V3.666c0-.2-.022-.424-.188-.556l-2.5-2A.5.5 0 0 0 11.5 1h-7a.5.5 0 0 0-.312.11ZM2.5 5.5V4h3v1.5a1.5 1.5 0 1 1-3 0Zm4 0V4h3v1.5a1.5 1.5 0 1 1-3 0Zm4 0V4h3v1.5a1.5 1.5 0 0 1-3 0ZM3.425 3l1.25-1H6.03l-.375 1h-2.23Zm3.297 0 .375-1H8.89l.333 1H6.722Zm3.222-1h1.38l1.25 1h-2.297l-.333-1ZM9 9.5a.5.5 0 0 1 .5-.5h2a.5.5 0 0 1 .5.5v2a.5.5 0 0 1-.5.5h-2a.5.5 0 0 1-.5-.5v-2ZM5 15h2v-5H5v5Z" fill="#212121"/>
</svg>
